src/pos-icons/bus-side.svg

<svg height="24" viewBox="0 0 24 24" width="24" xmlns="http://www.w3.org/2000/svg"><path d="m3 6c-1.11 0-2 .89-2 2v7h2a3 3 0 0 0 3 3 3 3 0 0 0 3-3h6a3 3 0 0 0 3 3 3 3 0 0 0 3-3h2v-7c0-1.11-.89-2-2-2zm-.5 1.5h4v2.5h-4zm5.5 0h4v2.5h-4zm5.5 0h4v2.5h-4zm5.5 0h2.5v5.5l-2.5-2zm-13 6a1.5 1.5 0 0 1 1.5 1.5 1.5 1.5 0 0 1 -1.5 1.5 1.5 1.5 0 0 1 -1.5-1.5 1.5 1.5 0 0 1 1.5-1.5m12 0a1.5 1.5 0 0 1 1.5 1.5 1.5 1.5 0 0 1 -1.5 1.5 1.5 1.5 0 0 1 -1.5-1.5 1.5 1.5 0 0 1 1.5-1.5z"/></svg>

<?xml version="1.0" encoding="UTF-8"?><!DOCTYPE svg PUBLIC "-//W3C//DTD SVG 1.1//EN" "http://www.w3.org/Graphics/SVG/1.1/DTD/svg11.dtd"><svg xmlns="http://www.w3.org/2000/svg" xmlns:xlink="http://www.w3.org/1999/xlink" version="1.1" id="mdi-bus-side" width="24" height="24" viewBox="0 0 24 24"><path d="M3,6C1.89,6 1,6.89 1,8V15H3A3,3 0 0,0 6,18A3,3 0 0,0 9,15H15A3,3 0 0,0 18,18A3,3 0 0,0 21,15H23V8C23,6.89 22.11,6 21,6H3M2.5,7.5H6.5V10H2.5V7.5M8,7.5H12V10H8V7.5M13.5,7.5H17.5V10H13.5V7.5M19,7.5H21.5V13L19,11V7.5M6,13.5A1.5,1.5 0 0,1 7.5,15A1.5,1.5 0 0,1 6,16.5A1.5,1.5 0 0,1 4.5,15A1.5,1.5 0 0,1 6,13.5M18,13.5A1.5,1.5 0 0,1 19.5,15A1.5,1.5 0 0,1 18,16.5A1.5,1.5 0 0,1 16.5,15A1.5,1.5 0 0,1 18,13.5Z" /></svg>
